!!!OTL: Die Bluthochzeit Fruehmorgens der Pfalzgraf zum Waidwerk reit',
!!!ARE: Europa, Mitteleuropa, Deutschland (BRD), Rheinprovinz, Siebengebirge
!!!YOR: 2, S. 159
!!    1838 aufgezeichnet (vor)
!!!SCT: Q0046A
!!!YEM: Copyright 1995, estate of Helmut Schaffrath.
**kern
*ICvox
*Ivox
*M4/4
*k[b-e-]
*g:
{4d
=1
4g
8.g
16a
8b-
8a
8g
8a
=2
4b-
4cc
4dd
8r}
{8dd
=3
8dd
8cc
8cc
8cc
8cc
8b-
8a
8g
=4
8cc
8b-
8a
8g
4.a}
{8dd
=5
8ffn
8ee-
8dd
8cc#
4.dd
8dd
=6
4dd
8cc
8b-
4.a}
{8dd
=7
8dd
8cc
8cc
8b-
4a
8a
8dd
=8
4b-
8a
8a
4g}
==
!!!AGN: Ballade, Entfuehrung, Mord, Vergeltung
!!!ONB: ESAC (Essen Associative Code) Database: BALLADE
!!!AMT: simple quadruple
!!!AIN: vox
!!!EED: Helmut Schaffrath
!!!EEV: 1.0
*-
